!!! OTL: Berkowitz434
!!! Chapter: 1
!!! Section: IV
!!! Page: 108
!!! Mode: 
!!! Encoder: DJB
**kern
*staff1
*I"Piano
=1-
*clefC3
*k[f#c#g#]
*f#:
*M3/8
8r
8r
8c#\
=2
8f#\L
8c#\
8f#\J
=3
8a\L
16g#\L
16f#\J
8e#\J
=4
16g#\LL
16c#\
16e#\
16g#\
16b\
16dd\JJ
=5
[8cc#\L
32cc#\LL]
32b\
32a\
32b\JJ
8cc#\J
=6
8ee\L
8dd#\
8b\J
=7
8dd\L
8cc#\
16.f#\L
32g#\JJk
=8
16a\LL
16f#\
16d\
16c#\
16B#\
16c#\JJ
=9
!!linebreak:original
[8g#\L
32g#\LL]
32b\
32a\
32g#\JJ
8f#\J
==
*-
